X: 3011
T: HUGH DUNLOP
Q:"Strathspey."
R: Strathspey.
%R:strathspey
B: James Kerr "Merry Melodies" v.3 p.4 #11
Z: 2016 John Chambers <jc:trillian.mit.edu>
M: C
L: 1/8
K: D
uF |\
A,>DF>A d>BA>F | F>AD>A G<E E>F |\
A,>DF>A d>BA>F | A>dF>d F<D DF |\
A,>DF>A d>BA>F | F>AD>A G<E E>F |
(3FGA (3DEF (3GAB (3AGF | (3GFG (3EAG F<D D |]\
uB |\
(A<d) (de/f/) g>ag>e | a>ef>d e>dc>A |\
(A<d) (de/f/) g>ag>e |
f<a e>f d2(d<f) |\
(A<d) (de/f/) g>ag>e | a>ef>d e>dc>A |\
(3fdf (3ece (3dcB (3AGF | (3GFG (3EAG F<D D |]

%%sep 1 1 500
%%sep 1 1 500

